img/twitter_icon.svg

<?xml version="1.0" encoding="UTF-8"?>
<svg width="25px" height="20px" viewBox="0 0 25 20" version="1.1" xmlns="http://www.w3.org/2000/svg" xmlns:xlink="http://www.w3.org/1999/xlink">
    <!-- Generator: Sketch 52.5 (67469) - http://www.bohemiancoding.com/sketch -->
    <title>twitter_icon</title>
    <desc>Created with Sketch.</desc>
    <g id="Page-1" stroke="none" stroke-width="1" fill="none" fill-rule="evenodd">
        <g id="Desktop-HD" transform="translate(-690.000000, -733.000000)" fill="#031926">
            <g id="site_showcase" transform="translate(343.000000, 321.000000)">
                <g id="showcase_content">
                    <g id="social_icons" transform="translate(293.000000, 412.000000)">
                        <path d="M61.7404863,20 C71.0286762,20 76.1089241,12.3048027 76.1089241,5.63156222 C76.1089241,5.41299342 76.1089241,5.19540915 76.094156,4.97880943 C77.0824723,4.26394259 77.9356036,3.3788064 78.6136045,2.36484463 C77.6919521,2.7732353 76.7142507,3.04105778 75.7131374,3.15937179 C76.7673321,2.5282613 77.5563257,1.53563394 77.9332845,0.366219945 C76.9420036,0.954441099 75.8575169,1.36899003 74.7266241,1.59197745 C73.1612803,-0.0724985744 70.6739639,-0.479884934 68.6594191,0.598257247 C66.6448742,1.67639943 65.6041085,3.97194143 66.1207234,6.19767513 C62.0603606,5.99412016 58.2773283,4.07630069 55.7131069,0.921502863 C54.3727708,3.22892464 55.0573885,6.18079953 57.276563,7.66267687 C56.4729202,7.63885833 55.6867992,7.42206725 54.9845442,7.03059951 C54.9845442,7.05127493 54.9845442,7.07293491 54.9845442,7.09459488 C54.985202,9.49845103 56.6796846,11.5688905 59.0359435,12.044883 C58.2924842,12.2476401 57.5124407,12.2772791 56.7557392,12.1315229 C57.4173016,14.188652 59.3131661,15.5978902 61.4736749,15.6384693 C59.6854818,17.0438391 57.4764841,17.8067582 55.2021284,17.8044665 C54.8003395,17.8036951 54.3989413,17.779368 54,17.7316102 C56.3093822,19.2136215 58.9964765,19.9997213 61.7404863,19.9960618" id="twitter_icon"></path>
                    </g>
                </g>
            </g>
        </g>
    </g>
</svg>

<svg id="Page-1" xmlns="http://www.w3.org/2000/svg" width="24.614" height="20" viewBox="0 0 24.614 20">
  <g id="Desktop-HD" transform="translate(-690 -733)">
    <g id="site_showcase" transform="translate(343 321)">
      <g id="showcase_content">
        <g id="social_icons" transform="translate(293 412)">
          <path id="twitter_icon" d="M61.741,20A14.271,14.271,0,0,0,76.109,5.632c0-.219,0-.436-.015-.653a10.275,10.275,0,0,0,2.519-2.614,10.079,10.079,0,0,1-2.9.795A5.068,5.068,0,0,0,77.933.366a10.12,10.12,0,0,1-3.207,1.226A5.055,5.055,0,0,0,66.121,6.2,14.337,14.337,0,0,1,55.713.922a5.054,5.054,0,0,0,1.563,6.741,5.013,5.013,0,0,1-2.292-.632v.064a5.052,5.052,0,0,0,4.051,4.95,5.042,5.042,0,0,1-2.28.087,5.056,5.056,0,0,0,4.718,3.507A10.133,10.133,0,0,1,55.2,17.8a10.276,10.276,0,0,1-1.2-.073A14.3,14.3,0,0,0,61.741,20" fill="#fff" fill-rule="evenodd"/>
        </g>
      </g>
    </g>
  </g>
</svg>
